X:1
B:Journal of the English Folk Dance and Song Society, Dec 1951
F:http://www.folkinfo.org/songs
T:Rock-a-bye Baby
B:Journal of the English Folk Society, Dec 1951
S:Mrs Oscar Allen (Ada Maddox), Lynchburg, Va.
Z:Maud Karpeles
M:6/8
L:1/8
K:G
D E F G2 E |D E F G3 |D E F G2 A |G E E E3 |
w:Rock-a-bye ba-by on the tree top, When the wind blows the cra-dle will rock
D E G G2 G |D E F G3 |D2 E G2 A |G E E E3 |
w:When the bough bends the cra-dle will fall, Down come cra-dle, ba-by and all.
E F G E F G | G2 A3/2 A/ E2 D | D E G E F A |G A A E D|]
w:Rock-a-bye, lull-a-by  bees in the clo-ver, Rock-a-bye, lull-a-by, bees in the clo-ver.
W:Rock-a-bye baby on the tree top,
W:When the wind blows the cradle will rock
W:When the bough bends the cradle will fall,
W:Down come cradle, baby and all.
W:Rock-a-bye, lullaby,
W:Bees in the clover,
W:Rock-a-bye, lullaby,
W:Bees in the clover.
